X:1
T:ALL AROUND MY HAT
M:6/8
L:1/8
K:D
 D3E-D C| D2 E F2 G| A3G-F E| D2 C A,3| D3E-D C| D2 E F2 G| A3B-A ^G|\
 A3 B2 c| d2 dc-B A| B3 A2 F| D2 E F2 E| D C2 A,3| D3 E2 C| D2- E F2 G|\
 A2 AG-F E| D3- D2 z|||
